assets/images/card/xls.svg

<svg width="111" height="144" viewBox="0 0 111 144" fill="none" xmlns="http://www.w3.org/2000/svg">
<path d="M0.5 18.4065V143.5H110.5V0.5H17.9514L0.5 18.4065Z" stroke="#0029FF"/>
<path d="M7.62891 19.4285H20.2165V6.85712" stroke="#0029FF"/>
<path d="M47.6602 70.9502L49.8066 67.0469H51.2969L48.4053 71.9824L51.3652 77H49.8887L47.6875 73.0215L45.4795 77H43.9824L46.9492 71.9824L44.0576 67.0469H45.541L47.6602 70.9502ZM54.4141 75.9268H59.2812V77H53.1494V67.0469H54.4141V75.9268ZM66.6025 74.4844C66.6025 74.179 66.5319 73.9215 66.3906 73.7119C66.2539 73.5023 66.0762 73.3268 65.8574 73.1855C65.6387 73.0397 65.3971 72.9189 65.1328 72.8232C64.873 72.7275 64.6224 72.641 64.3809 72.5635C64.0299 72.4495 63.6722 72.3128 63.3076 72.1533C62.9476 71.9938 62.6172 71.7979 62.3164 71.5654C62.0202 71.333 61.7764 71.0596 61.585 70.7451C61.3981 70.4261 61.3047 70.0524 61.3047 69.624C61.3047 69.1956 61.3981 68.8128 61.585 68.4756C61.7764 68.1383 62.0247 67.8535 62.3301 67.6211C62.6354 67.3887 62.9818 67.2132 63.3691 67.0947C63.7565 66.9717 64.1462 66.9102 64.5381 66.9102C64.971 66.9102 65.388 66.9831 65.7891 67.1289C66.1901 67.2702 66.5456 67.4707 66.8555 67.7305C67.1654 67.9902 67.4137 68.3047 67.6006 68.6738C67.7874 69.043 67.8854 69.4554 67.8945 69.9111H66.5957C66.5592 69.624 66.4886 69.3643 66.3838 69.1318C66.279 68.8949 66.14 68.6921 65.9668 68.5234C65.7936 68.3548 65.5863 68.2249 65.3447 68.1338C65.1077 68.0381 64.8389 67.9902 64.5381 67.9902C64.2965 67.9902 64.0596 68.0244 63.8271 68.0928C63.5993 68.1611 63.3942 68.2637 63.2119 68.4004C63.0342 68.5371 62.8906 68.7057 62.7812 68.9062C62.6764 69.1068 62.624 69.3392 62.624 69.6035C62.6286 69.8906 62.7015 70.1344 62.8428 70.335C62.984 70.5309 63.1618 70.6973 63.376 70.834C63.5947 70.9707 63.8294 71.0846 64.0801 71.1758C64.3353 71.2669 64.5745 71.3467 64.7979 71.415C65.0439 71.4925 65.2923 71.5814 65.543 71.6816C65.7936 71.7773 66.0352 71.889 66.2676 72.0166C66.5 72.1442 66.7165 72.2878 66.917 72.4473C67.1175 72.6068 67.293 72.7891 67.4434 72.9941C67.5938 73.1947 67.71 73.418 67.792 73.6641C67.8786 73.9056 67.9219 74.1745 67.9219 74.4707C67.9219 74.9173 67.8216 75.307 67.6211 75.6396C67.4251 75.9723 67.1699 76.2503 66.8555 76.4736C66.541 76.6924 66.1855 76.8587 65.7891 76.9727C65.3926 77.082 64.9961 77.1367 64.5996 77.1367C64.1576 77.1367 63.7246 77.0684 63.3008 76.9316C62.877 76.7949 62.4964 76.599 62.1592 76.3438C61.8265 76.084 61.5553 75.7695 61.3457 75.4004C61.1361 75.0267 61.0244 74.6029 61.0107 74.1289H62.3027C62.3438 74.4388 62.4281 74.7145 62.5557 74.9561C62.6833 75.193 62.8473 75.3958 63.0479 75.5645C63.2484 75.7285 63.4785 75.8538 63.7383 75.9404C64.0026 76.0225 64.2897 76.0635 64.5996 76.0635C64.8457 76.0635 65.0872 76.0339 65.3242 75.9746C65.5658 75.9108 65.7799 75.8151 65.9668 75.6875C66.1536 75.5553 66.3063 75.3913 66.4248 75.1953C66.5433 74.9948 66.6025 74.7578 66.6025 74.4844Z" fill="#0029FF"/>
</svg>

<svg width="111" height="144" fill="none" xmlns="http://www.w3.org/2000/svg"><path d="M.5 18.407V143.5h110V.5H17.951L.5 18.407z" stroke="#0029FF"/><path d="M7.629 19.428h12.587V6.858" stroke="#0029FF"/><path d="M47.66 70.95l2.147-3.903h1.49l-2.892 4.935L51.365 77H49.89l-2.202-3.978L45.48 77h-1.498l2.967-5.018-2.891-4.935h1.483l2.12 3.903zm6.754 4.977h4.867V77H53.15v-9.953h1.265v8.88zm12.189-1.443c0-.305-.071-.563-.212-.772a1.78 1.78 0 00-.534-.526 3.366 3.366 0 00-.724-.363c-.26-.095-.51-.182-.752-.26-.351-.114-.709-.25-1.073-.41-.36-.16-.69-.355-.992-.588a3.055 3.055 0 01-.731-.82c-.187-.319-.28-.693-.28-1.121 0-.428.093-.811.28-1.148.191-.338.44-.623.745-.855a3.287 3.287 0 011.04-.526 3.843 3.843 0 011.168-.185c.433 0 .85.073 1.251.219a3.4 3.4 0 011.067.602c.31.26.558.574.745.943.186.369.284.781.293 1.237h-1.298a2.722 2.722 0 00-.212-.78 1.927 1.927 0 00-.417-.608 1.78 1.78 0 00-.622-.39 2.139 2.139 0 00-.807-.143c-.242 0-.478.034-.71.103a1.95 1.95 0 00-.616.307 1.593 1.593 0 00-.43.506c-.106.2-.158.433-.158.697.005.288.078.531.219.732.141.196.319.362.533.499.219.137.453.25.704.342.255.09.495.17.718.239.246.078.494.166.745.267.25.095.492.207.725.335.232.127.448.27.649.43.2.16.376.342.526.547.15.2.267.424.349.67.087.242.13.51.13.807 0 .446-.1.836-.3 1.169a2.68 2.68 0 01-.766.834 3.61 3.61 0 01-1.067.499 4.469 4.469 0 01-1.19.164c-.441 0-.874-.069-1.298-.205a3.817 3.817 0 01-1.142-.588 3.173 3.173 0 01-.813-.944 2.72 2.72 0 01-.335-1.271h1.292c.04.31.125.585.253.827.127.237.291.44.492.608.2.165.43.29.69.376.265.082.552.124.862.124.246 0 .487-.03.724-.09.242-.063.456-.159.643-.287a1.63 1.63 0 00.458-.492c.118-.2.178-.437.178-.71z" fill="#0029FF"/></svg>
